img/figma.svg

<svg width="110" height="126" viewBox="0 0 110 126" fill="none" xmlns="http://www.w3.org/2000/svg">
<g clip-path="url(#clip0_1_14)">
<path d="M37.5 127C48.8465 127 58 117.623 58 106V85H37.5C26.1535 85 17 94.3767 17 106C17 117.623 26.1535 127 37.5 127Z" fill="#0ACF83"/>
<path d="M6 63.5C6 51.6 17.6093 42 32 42H58V85H32C17.6093 85 6 75.4 6 63.5Z" fill="#A259FF"/>
<path d="M6 21C6 9.37674 17.6093 0 32 0H58V42H32C17.6093 42 6 32.6233 6 21Z" fill="#F24E1E"/>
<path d="M58 0H83C96.8372 0 108 9.37674 108 21C108 32.6233 96.8372 42 83 42H58V0Z" fill="#FF7262"/>
<path d="M108 63.5C108 75.4 96.8372 85 83 85C69.1628 85 58 75.4 58 63.5C58 51.6 69.1628 42 83 42C96.8372 42 108 51.6 108 63.5Z" fill="#1ABCFE"/>
</g>
<defs>
<clipPath id="clip0_1_14">
<rect width="110" height="126" fill="white"/>
</clipPath>
</defs>
</svg>

<svg xmlns="http://www.w3.org/2000/svg" width="110" height="126" fill="none"><g clip-path="url(#a)"><path fill="#0ACF83" d="M37.5 127c11.346 0 20.5-9.377 20.5-21V85H37.5C26.154 85 17 94.377 17 106s9.154 21 20.5 21Z"/><path fill="#A259FF" d="M6 63.5C6 51.6 17.61 42 32 42h26v43H32C17.61 85 6 75.4 6 63.5Z"/><path fill="#F24E1E" d="M6 21C6 9.377 17.61 0 32 0h26v42H32C17.61 42 6 32.623 6 21Z"/><path fill="#FF7262" d="M58 0h25c13.837 0 25 9.377 25 21S96.837 42 83 42H58V0Z"/><path fill="#1ABCFE" d="M108 63.5C108 75.4 96.837 85 83 85s-25-9.6-25-21.5S69.163 42 83 42s25 9.6 25 21.5Z"/></g><defs><clipPath id="a"><path fill="#fff" d="M0 0h110v126H0z"/></clipPath></defs></svg>
